images_sukapura_svg/cmd/lc_exportdirecttopdf.svg

<svg viewBox="0 0 24 24" xmlns="http://www.w3.org/2000/svg" xmlns:xlink="http://www.w3.org/1999/xlink"><linearGradient id="a" gradientUnits="userSpaceOnUse" x1="15" x2="17.000001" y1="7" y2="4.999999"><stop offset="0" stop-color="#fff"/><stop offset=".77967989" stop-color="#f1f1f1"/><stop offset="1" stop-color="#d5d5d5"/></linearGradient><radialGradient id="b" cx="17" cy="6.555555" gradientTransform="matrix(1.4285714 -.00000006 .00000006 1.4285714 -7.285714 -4.365078)" gradientUnits="userSpaceOnUse" r="7"><stop offset="0" stop-color="#d7d7d7"/><stop offset=".29999998" stop-color="#f7f7f7"/><stop offset="1" stop-color="#fff"/></radialGradient><path d="m5 3v18h14v-14.2705905l-4-3.7294095z" fill="url(#b)"/><path d="m5 2c-.554 0-1 .446-1 1v18c0 .554.446 1 1 1h14c.554 0 1-.446 1-1v-10.109375-3.6412209-.2079239c0-.4506799.09887-.4265951-.604637-1.0675892l-3.307389-3.2370335c-.709525-.7368575-.711223-.7368575-1.094804-.7368575h-.331557-.661613zm0 1h9v4c0 .554.446 1 1 1h4v13h-14z" fill="#98989d"/><path d="m15 7h4l-4-4z" fill="#fff" fill-rule="evenodd"/><path d="m15 3 4 4h-4z" fill="url(#a)"/><path d="m16.138672 10c-.560047-.00967-.987813.35888-1.244141.832031a1.0001 1.0001 0 0 0 -.216797.390625c-.0033.01839-.02279.028255-.02539.046875a1.0001 1.0001 0 0 0 0 .001953c-.0039.02821.0016.030121 0 .056641-.000108.0018.000098.002106 0 .003906a1.0001 1.0001 0 0 0 -.011719.216797c.00894.177004.008931.386536.019531.625-.04586.686373-.022071 1.319488.042969 1.910156-.021967.732878-.095538 1.423899-.300781 2.123047-.409255 1.394077-1.305758 2.921529-3.425782 4.792969-.148687.131254-.286067.259757-.447265.394531a1.0001 1.0001 0 0 0 -.085938.080078c-.0013-.00048.051559-.054562-.019531.017579a1.0001 1.0001 0 0 0 -.007812.007812c-.002986.00322-.000907.008519-.003907.011719a1.0001 1.0001 0 0 0 -.228515.488281h4.099609c.533836-.408155 1.044761-.740846 1.535156-1 .658703-.348098 1.283219-.579695 1.876953-.71875.366844-.085919.725672-.138359 1.082032-.162109.074404-.0049.148436.004453.222656.001953.28125-.00952.561954-.014778.84375.007812.050277.01469.10556.026536.15625.041016v-3.052734c-.384293-.146405-.718594-.310743-1-.494141-.204451-.133245-.391278-.272988-.537109-.425781-.39176-.410462-.678257-1.097367-.835938-2.03711.03089-.960922.001001-1.889816-.042969-2.761718a1.0001 1.0001 0 0 0 0-.001954c-.040222-.762545-.680095-1.381424-1.443359-1.396484z" fill="#fff" fill-opacity=".784314"/><path d="m11.473603 22.526341c5.226938-4.370563 4.807709-7.688322 4.637891-11.052586-.748906 5.401898 2.038932 7.334389 6.414603 7.709274-3.299738-1.04046-6.796542-.976274-11.052494 3.343312z" fill="none" stroke="#ff453a" stroke-linecap="round" stroke-linejoin="round" stroke-width=".948529"/></svg>

<?xml version="1.0" encoding="UTF-8" standalone="no"?>
<svg
   xmlns:dc="http://purl.org/dc/elements/1.1/"
   xmlns:cc="http://creativecommons.org/ns#"
   xmlns:rdf="http://www.w3.org/1999/02/22-rdf-syntax-ns#"
   xmlns:svg="http://www.w3.org/2000/svg"
   xmlns="http://www.w3.org/2000/svg"
   xmlns:sodipodi="http://sodipodi.sourceforge.net/DTD/sodipodi-0.dtd"
   xmlns:inkscape="http://www.inkscape.org/namespaces/inkscape"
   viewBox="0 0 24 24"
   version="1.1"
   id="svg24"
   sodipodi:docname="lc_exportdirecttopdf.svg"
   inkscape:version="0.92.3 (unknown)"
   inkscape:export-filename="/home/rizmut/Dokumen/Rizmut/Github/libreoffice-style-sukapura/images_sukapura_svg/cmd/lc_exportdirecttopdf.png"
   inkscape:export-xdpi="96"
   inkscape:export-ydpi="96">
  <metadata
     id="metadata30">
    <rdf:RDF>
      <cc:Work
         rdf:about="">
        <dc:format>image/svg+xml</dc:format>
        <dc:type
           rdf:resource="http://purl.org/dc/dcmitype/StillImage" />
        <dc:title></dc:title>
      </cc:Work>
    </rdf:RDF>
  </metadata>
  <defs
     id="defs28" />
  <sodipodi:namedview
     pagecolor="#ffffff"
     bordercolor="#666666"
     borderopacity="1"
     objecttolerance="10"
     gridtolerance="10"
     guidetolerance="10"
     inkscape:pageopacity="0"
     inkscape:pageshadow="2"
     inkscape:window-width="1366"
     inkscape:window-height="706"
     id="namedview26"
     showgrid="true"
     inkscape:zoom="9.8333333"
     inkscape:cx="21.54446"
     inkscape:cy="2.9353108"
     inkscape:window-x="0"
     inkscape:window-y="0"
     inkscape:window-maximized="1"
     inkscape:current-layer="svg24">
    <inkscape:grid
       type="xygrid"
       id="grid1591" />
  </sodipodi:namedview>
  <linearGradient
     id="a"
     gradientUnits="userSpaceOnUse"
     x1="15"
     x2="17.0000008"
     y1="7"
     y2="4.9999992">
    <stop
       offset="0"
       stop-color="#fff"
       id="stop2" />
    <stop
       offset=".77967989"
       stop-color="#f1f1f1"
       id="stop4" />
    <stop
       offset="1"
       stop-color="#d5d5d5"
       id="stop6" />
  </linearGradient>
  <radialGradient
     id="b"
     cx="17"
     cy="6.555555"
     gradientTransform="matrix(1.4285714 -.00000006 .00000006 1.4285714 -7.285714 -4.365078)"
     gradientUnits="userSpaceOnUse"
     r="7">
    <stop
       offset="0"
       stop-color="#d7d7d7"
       id="stop9" />
    <stop
       offset=".29999998"
       stop-color="#f7f7f7"
       id="stop11" />
    <stop
       offset="1"
       stop-color="#fff"
       id="stop13" />
  </radialGradient>
  <g
     id="g844">
    <path
       id="path16"
       fill="url(#b)"
       d="m5 3v18h14v-14.2705905l-4-3.7294095z" />
    <path
       id="path18"
       fill="#98989d"
       d="m5 2c-.554 0-1 .446-1 1v18c0 .554.446 1 1 1h14c.554 0 1-.446 1-1v-10.109375-3.6412209-.2079239c0-.4506799.09887-.4265951-.604637-1.0675892l-3.307389-3.2370335c-.709525-.7368575-.711223-.7368575-1.094804-.7368575h-.331557-.661613zm0 1h9v4c0 .554.446 1 1 1h4v13h-14z" />
    <path
       id="path20"
       fill-rule="evenodd"
       fill="#fff"
       d="m15 7h4l-4-4z" />
    <path
       id="path22"
       fill="url(#a)"
       d="m15 3 4 4h-4z" />
  </g>
  <path
     style="fill:#ffffff;fill-opacity:0.78431374;stroke:none"
     d="M 16.138672 10 C 15.578625 9.99033 15.150859 10.35888 14.894531 10.832031 A 1.0001 1.0001 0 0 0 14.677734 11.222656 C 14.674434 11.241046 14.654944 11.250911 14.652344 11.269531 A 1.0001 1.0001 0 0 0 14.652344 11.271484 C 14.648444 11.299694 14.653944 11.301605 14.652344 11.328125 C 14.652236 11.329925 14.652442 11.330231 14.652344 11.332031 A 1.0001 1.0001 0 0 0 14.640625 11.548828 C 14.649565 11.725832 14.649556 11.935364 14.660156 12.173828 C 14.614296 12.860201 14.638085 13.493316 14.703125 14.083984 C 14.681158 14.816862 14.607587 15.507883 14.402344 16.207031 C 13.993089 17.601108 13.096586 19.12856 10.976562 21 C 10.827875 21.131254 10.690495 21.259757 10.529297 21.394531 A 1.0001 1.0001 0 0 0 10.443359 21.474609 C 10.442059 21.474129 10.494918 21.420047 10.423828 21.492188 A 1.0001 1.0001 0 0 0 10.416016 21.5 C 10.41303 21.50322 10.415109 21.508519 10.412109 21.511719 A 1.0001 1.0001 0 0 0 10.183594 22 L 14.283203 22 C 14.817039 21.591845 15.327964 21.259154 15.818359 21 C 16.477062 20.651902 17.101578 20.420305 17.695312 20.28125 C 18.062156 20.195331 18.420984 20.142891 18.777344 20.119141 C 18.851748 20.114241 18.92578 20.123594 19 20.121094 C 19.28125 20.111574 19.561954 20.106316 19.84375 20.128906 C 19.894027 20.143596 19.94931 20.155442 20 20.169922 L 20 17.117188 C 19.615707 16.970783 19.281406 16.806445 19 16.623047 C 18.795549 16.489802 18.608722 16.350059 18.462891 16.197266 C 18.071131 15.786804 17.784634 15.099899 17.626953 14.160156 C 17.657843 13.199234 17.627954 12.27034 17.583984 11.398438 A 1.0001 1.0001 0 0 0 17.583984 11.396484 C 17.543762 10.633939 16.903889 10.01506 16.140625 10 L 16.138672 10 z "
     id="rect1593" />
  <path
     inkscape:connector-curvature="0"
     style="fill:none;stroke:#ff453a;stroke-width:0.94852901;stroke-linecap:round;stroke-linejoin:round"
     d="m 11.473603,22.526341 c 5.226938,-4.370563 4.807709,-7.688322 4.637891,-11.052586 -0.748906,5.401898 2.038932,7.334389 6.414603,7.709274 -3.299738,-1.04046 -6.796542,-0.976274 -11.052494,3.343312 z"
     id="path24" />
</svg>
